src/img/svg/icon-smile.svg

<svg width="32" height="32" viewBox="0 0 32 32" fill="none" xmlns="http://www.w3.org/2000/svg">
<path d="M9.57143 16.3264V15.3264C9.30621 15.3264 9.05186 15.4318 8.86432 15.6193C8.67678 15.8069 8.57143 16.0612 8.57143 16.3264H9.57143ZM22.4286 16.3264H23.4286C23.4286 16.0612 23.3232 15.8069 23.1357 15.6193C22.9481 15.4318 22.6938 15.3264 22.4286 15.3264V16.3264ZM22.4286 15.3264H9.57143V17.3264H22.4286V15.3264ZM16 23.5389C20.1509 23.5389 23.4286 20.4197 23.4286 16.3264L21.4286 16.3264C21.4286 19.2512 19.1113 21.5389 16 21.5389V23.5389ZM8.57143 16.3264C8.57143 20.4197 11.8491 23.5389 16 23.5389V21.5389C12.8887 21.5389 10.5714 19.2512 10.5714 16.3264L8.57143 16.3264ZM16 29.8221C8.2355 29.8221 2 23.7479 2 16.3264H0C0 24.9164 7.19596 31.8221 16 31.8221V29.8221ZM30 16.3264C30 23.7479 23.7645 29.8221 16 29.8221V31.8221C24.804 31.8221 32 24.9164 32 16.3264H30ZM16 2.83081C23.7645 2.83081 30 8.90498 30 16.3264H32C32 7.73648 24.804 0.830811 16 0.830811V2.83081ZM16 0.830811C7.19596 0.830811 0 7.73648 0 16.3264H2C2 8.90498 8.2355 2.83081 16 2.83081V0.830811ZM8.5 13.1848H10.6429V11.1848H8.5V13.1848ZM21.3571 13.1848H23.5V11.1848H21.3571V13.1848Z" fill="#0085FF"/>
</svg>

<svg xmlns="http://www.w3.org/2000/svg" width="32" height="32" fill="none"><path fill="#0085FF" d="M9.571 16.326v-1a1 1 0 00-1 1h1zm12.858 0h1a1 1 0 00-1-1v1zm0-1H9.57v2H22.43v-2zM16 23.54c4.15 0 7.429-3.12 7.429-7.213h-2c0 2.925-2.318 5.213-5.429 5.213v2zm-7.429-7.213c0 4.094 3.278 7.213 7.429 7.213v-2c-3.111 0-5.429-2.288-5.429-5.213h-2zM16 29.822c-7.764 0-14-6.074-14-13.496H0c0 8.59 7.196 15.496 16 15.496v-2zm14-13.496c0 7.422-6.235 13.496-14 13.496v2c8.804 0 16-6.906 16-15.496h-2zM16 2.831c7.765 0 14 6.074 14 13.495h2C32 7.736 24.804.831 16 .831v2zm0-2C7.196.83 0 7.736 0 16.326h2C2 8.905 8.236 2.831 16 2.831v-2zM8.5 13.185h2.143v-2H8.5v2zm12.857 0H23.5v-2h-2.143v2z"/></svg>
